X: 305
T:Le Reel Des Jeunes Mari\'es
R:reel
M:4/4
L:1/8
K:D
"D"D2FA FAde|fafd A2f2|"A"gfed "A7"cABc|"D"dcde fedA|
D2FA FAde|fafd A2f2|"A"gfed "A7"cABc|"D"d2f2 d2A2:|
|:a2fd Adfa|"A"gecB Acef|g2ec "A7"Aceg|"D"fedf "A7"eAdf|
"D"a2fd Adfa|"A"gecB Acef|g2ec "A7"Aceg|[1 "A7"fdec "D"d2A2:|[2 "A7"fdec "D"d4|]
